app/images/src/menyMyWebsites.svg

<svg width="20" height="18" viewBox="0 0 20 18" fill="none" xmlns="http://www.w3.org/2000/svg">
<path d="M18.0156 15V6H13.9844V15H18.0156ZM13 9.98438V6H1.98438V9.98438H13ZM13 15V11.0156H1.98438V15H13ZM18.0156 0.984375C18.5469 0.984375 19 1.1875 19.375 1.59375C19.7812 2 19.9844 2.46875 19.9844 3V15C19.9844 15.5313 19.7812 16 19.375 16.4062C19 16.8125 18.5469 17.0156 18.0156 17.0156H1.98438C1.45312 17.0156 0.984375 16.8125 0.578125 16.4062C0.203125 16 0.015625 15.5313 0.015625 15V3C0.015625 2.46875 0.203125 2 0.578125 1.59375C0.984375 1.1875 1.45312 0.984375 1.98438 0.984375H18.0156Z" fill="#CBCFD4"/>
</svg>

<svg width="20" height="18" fill="none" xmlns="http://www.w3.org/2000/svg"><path d="M18.0156 15V6h-4.0312v9h4.0312zM13 9.9844V6H1.9844v3.9844H13zM13 15v-3.9844H1.9844V15H13zM18.0156.9844c.5313 0 .9844.2031 1.3594.6093.4062.4063.6094.875.6094 1.4063v12c0 .5313-.2032 1-.6094 1.4062-.375.4063-.8281.6094-1.3594.6094H1.9844c-.5313 0-1-.2031-1.4063-.6094C.2031 16 .0156 15.5313.0156 15V3c0-.5313.1875-1 .5625-1.4063.4063-.4062.875-.6093 1.4063-.6093h16.0312z" fill="#CBCFD4"/></svg>
